X:1
T:London Hornpipe. WHL.[194]
L:1/8
Q:1/2=80
M:2/2
I:linebreak $
K:A
V:1 treble 
V:1
 cd"^NB1" |: e^dec AGAc | dcdB GEFG | AEcA ecaf | (3gba (3gfe dBcd |$ e^dec agf^e | f^efd bagf | %7
 agfe caf^d |1 eEFG ABcd :|2 e2 e2 e2 |: cd |$ e^dea c'gec | =dcdg d'gdB | caee' c'aec | %14
 BEFG ABcd | e^dec AGAc |$ d[ce]dB GEFG | A>a (3gaf (3efd (3cdB | A2 c2 A2 :| %19
